!!!COM: Mozart, Wolfgang Amadeus
!!!OTL: String Quartet No. 18 in A Major
!!!OMD: Allegro non troppo
!!!OMV: 4
!!!SCT1: K<sup>1</sup> 464
!!!SCA: Chronologisch-thematisches Verzeichnis sämtlicher Tonwerke Wolfgang Amade Mozarts (L. von Köchel; 1862, 2/1905, 3/1937, 1947)
!!!SCT2: K<sup>6</sup> 464
!!!YOR: Breitkopf & Härtel Edition
!!!ENC: Frances Bennion
!!!CDT: 1756/1/27/-1791/12/5/
!!!OCY: Österreich
!!!YEC: Copyright (c) 1994, 2000 Center for Computer Assisted Research in the Humanities
!!!YEM: Rights to all derivative editions reserved.
!!!YEM: Refer to licensing agreement for further details.
!!!YEN: United States of America
**kern	**kern	**kern	**kern
*k[f#c#g#]	*k[f#c#g#]	*k[f#c#g#]	*k[f#c#g#]
*A:	*A:	*A:	*A:
*clefC	*clefF	*clefG	*clefG
*M2/2	*M2/2	*M2/2	*M2/2
1r	1r	1r	2ee
.	.	.	4dd#
.	.	.	4dd
=2	=2	=2	=2
1r	1r	4r	4cc#
.	.	4a	2r
.	.	4cc#	.
.	.	4b	4ee#
=3	=3	=3	=3
1r	1r	4a#	4ff#
.	.	4f#	4.ff#
.	.	4g#	.
.	.	.	8gg
.	.	4a#	8ee
.	.	.	8ff#
=4	=4	=4	=4
4r	4r	4b	4dd
4B	4.b	4.dd	2.r
4c#	.	.	.
.	8cc#	8ee	.
4d	8a	8cc#	.
.	8b	8dd	.
=5	=5	=5	=5
4e	4g#	4b	2dd
2.r	2.r	2.r	.
.	.	.	4cc#
.	.	.	4cc
=6	=6	=6	=6
1r	1r	4r	4b
.	.	4g#	2r
.	.	4b	.
.	.	4a	4dd#
=7	=7	=7	=7
1r	1r	4g#	4ee
.	.	4e	4.ee
.	.	4f#	.
.	.	.	8ff#
.	.	4g#	8dd
.	.	.	8ee
=8	=8	=8	=8
4r	4r	4a	4cc#
4.C#	4.E	2.r	2.r
8D	8F#	.	.
8BB	8D	.	.
8C#	8E	.	.
=9	=9	=9	=9
4AA	4C#	4r	4r
2.r	2.r	4.e	4.cc#
.	.	8f#	8dd
.	.	8d	8b
.	.	8e	8cc#
=10	=10	=10	=10
4r	4r	4c#	4a
4.E	4.c#	2.r	2.r
8F#	8d	.	.
8D	8B	.	.
8E	8c#	.	.
=11	=11	=11	=11
4C#	4A	4r	4r
2.r	2.r	4.cc#	4.ee
.	.	8dd	8ff#
.	.	8b	8dd
.	.	8cc#	8ee
=12	=12	=12	=12
4r	4r	4a	4cc#
4.c#	4.e	2.r	2.r
8d	8f#	.	.
8B	8d	.	.
8c#	8e	.	.
=13	=13	=13	=13
4A	4c#	4r	4r
2.r	2.r	4a	4.aa
.	.	4b	.
.	.	.	8bb
.	.	4cc#	8gg#
.	.	.	8aa
=14	=14	=14	=14
1r	4r	4dd	4ff#
.	4f#	4.dd	4.ff#
.	4g#	.	.
.	.	8ee	8gg
.	4a#	8cc#	8ee
.	.	8dd	8ff#
=15	=15	=15	=15
4r	4b	4b	4dd
4E	4g#	4.b	4.dd
4G#	[2e	.	.
.	.	8cc#	8ee
4A	.	8a	8cc#
.	.	8b	8dd
=16	=16	=16	=16
4E	8e]	8g#	4b
.	8f#	8a	.
2.r	8e	8g#	2.r
.	8d	8f#	.
.	8c#	8e	.
.	8B	8d	.
.	8A	8c#	.
.	8G#	8B	.
=17	=17	=17	=17
1r	4A	4c#	2ee
.	2.r	2.r	.
.	.	.	4dd#
.	.	.	4dd
=18	=18	=18	=18
1r	2c#	2e	4cc#
.	.	.	2r
.	4c	4d#	.
.	4B	4d	4ee#
=19	=19	=19	=19
4r	4A#	4c#	4ff#
4FF#	4c#	4a#	4.ff#
4GG#	[2f#	4b	.
.	.	.	8gg
4AA#	.	4cc#	8ee
.	.	.	8ff#
=20	=20	=20	=20
4BB	8f#]	8dd	4dd
.	8g	8ee	.
4C#	8e	8cc#	2.r
.	8f#	8dd	.
4D	8d	8b	.
.	8e	8cc#	.
4D#	8c#	8a	.
.	8d	8b	.
=21	=21	=21	=21
4E	4B	4g#	2dd
2.r	2.r	2.r	.
.	.	.	4cc#
.	.	.	4cc
=22	=22	=22	=22
1r	2B	2d	4b
.	.	.	2r
.	4A#	4c#	.
.	4A	4c	4dd#
=23	=23	=23	=23
4r	4G#	4B	4ee
4EE	4B	4g#	4.ee
4FF#	[2e	4a	.
.	.	.	8ff#
4GG#	.	4b	8dd
.	.	.	8ee
=24	=24	=24	=24
4AA	8e]	8cc#	4cc#
.	8f#	8dd	.
4BB	8d	8b	2.r
.	8e	8cc#	.
2C#	8c#	8a	.
.	8d	8b	.
.	8B	8g#	.
.	8c#	8a	.
=25	=25	=25	=25
4D	4A	4f#	4r
4BB	2B	4g#	4.dd
4C#	.	4e	.
.	.	.	8ee
4D	4A	[4a	8cc#
.	.	.	8dd
=26	=26	=26	=26
2E	4e	8a]	4b
.	.	8b	.
.	2.r	8g#	4.ee
.	.	8a	.
2B	.	4f#	.
.	.	.	8ff#
.	.	[4b	8dd
.	.	.	8ee
=27	=27	=27	=27
2F#	1r	8b]	4cc#
.	.	8cc#	.
.	.	8a	4.ff#
.	.	8b	.
4BB	.	4.g	.
.	.	.	8gg
4C#	.	.	[4ee
.	.	8a	.
=28	=28	=28	=28
4D	2.r	4.f#	8ee]
.	.	.	8ff#
4BB	.	.	4.dd
.	.	8g#	.
4C#	.	[2e	.
.	.	.	8ee
4AA	[4A	.	8cc#
.	.	.	8dd
=29	=29	=29	=29
4EE	8A]	4e]	4b
.	8B	.	.
4.E	8G#	2.r	2.r
.	8A	.	.
.	4F#	.	.
8F#	.	.	.
8D	[4B	.	.
8E	.	.	.
=30	=30	=30	=30
4C#	8B]	1r	1r
.	8c#	.	.
4.F#	8A	.	.
.	8B	.	.
.	4G#	.	.
8G#	.	.	.
8E	[4c#	.	.
8F#	.	.	.
=31	=31	=31	=31
4.D	8c#]	2.r	1r
.	8d	.	.
.	4.B	.	.
8E	.	.	.
4.C#	.	.	.
.	8c#	.	.
.	[4A	[4ee	.
8D	.	.	.
=32	=32	=32	=32
2BB	4A]	8ee]	4r
.	.	8ff#	.
.	4G#	8dd	4.bb
.	.	8ee	.
4C#	4e	4cc#	.
.	.	.	8ccc#
4D#	[4B	[4ff#	8aa
.	.	.	8bb
=33	=33	=33	=33
4E	4B]	8ff#]	4gg#
.	.	8gg#	.
4AA#	2f#	8ee	4.ccc#
.	.	8ff#	.
2BB	.	4.dd#	.
.	.	.	8ddd#
.	4g#	.	[4bb
.	.	8ee	.
=34	=34	=34	=34
2BB	4e#	4.cc#	8bb]
.	.	.	8ccc#
.	4f#	.	4.aa
.	.	8dd#	.
2BB	4d#	4.b	.
.	.	.	8bb
.	4e	.	[4gg#
.	.	8cc#	.
=35	=35	=35	=35
2BB	4c#	4.a	8gg#]
.	.	.	8aa
.	4d#	.	4.ff#
.	.	8b	.
2BB	4e	4g#	.
.	.	.	8gg#
.	4c#	4a#	8ee
.	.	.	8ff#
=36	=36	=36	=36
4BB	4B	4b	4dd#
4r	2.r	2r	4.aa
2C	.	.	.
.	.	.	8gg
.	.	[4a	8ff#
.	.	.	8ee
=37	=37	=37	=37
2BB	2.r	8a]	4dd#
.	.	8g	.
.	.	8f#	4.aa
.	.	8e	.
2C	.	4d#	.
.	.	.	8gg
.	[4a	4r	8ff#
.	.	.	8ee
=38	=38	=38	=38
4BB	8a]	4r	4dd#
.	8g	.	.
4r	8f#	2ff#	4.aa
.	8e	.	.
4B	4d#	.	.
.	.	.	8gg#
4c	4e	4ee	8aa
.	.	.	8aa#
=39	=39	=39	=39
4B	4f#	4dd#	4bb
4.BB	4.B	4.B	2.r
8AA#	8A#	8A#	.
8BB	8B	8B	.
8AA	8A	8A	.
=40	=40	=40	=40
4GG#	4G#	4G#	2b
2.r	2.r	2.r	.
.	.	.	4a#
.	.	.	4a
=41	=41	=41	=41
8EE	2e	1r	4g#
8EE	.	.	.
8EE	.	.	2.r
8EE	.	.	.
8EE	4d#	.	.
8EE	.	.	.
8EE	4d	.	.
8EE	.	.	.
=42	=42	=42	=42
8EE	2c#	2ee	1r
8EE	.	.	.
8EE	.	.	.
8EE	.	.	.
8EE	2B	4dd#	.
8EE	.	.	.
8EE	.	4dd	.
8EE	.	.	.
=43	=43	=43	=43
8EE	4A	2cc#	2aa
8EE	.	.	.
8EE	4c#	.	.
8EE	.	.	.
8EE	[2e	[2b	4gg#
8EE	.	.	.
8EE	.	.	4gg
8EE	.	.	.
=44	=44	=44	=44
8EE	4e]	1b_	4ff#
8EE	.	.	.
8EE	8d#	.	4.bb
8EE	8c#	.	.
8EE	2d#	.	.
8EE	.	.	8ccc#
8EE	.	.	8aa
8EE	.	.	8bb
=45	=45	=45	=45
8EE	4e	2b]	4gg#
8E	.	.	.
8E	2.r	.	2.r
8E	.	.	.
8E	.	4a#	.
8E	.	.	.
8E	.	4a	.
8E	.	.	.
=46	=46	=46	=46
8E	2e	4g#	1r
8E	.	.	.
8E	.	2.r	.
8E	.	.	.
8E	4d#	.	.
8E	.	.	.
8E	4d	.	.
8E	.	.	.
=47	=47	=47	=47
8E	4c#	2ee	1r
8E	.	.	.
8E	4c	.	.
8E	.	.	.
8E	4B	4dd#	.
8E	.	.	.
8E	4G#	4dd	.
8E	.	.	.
=48	=48	=48	=48
8E	4A	4cc#	2aa
8E	.	.	.
8E	4d#	4cc	.
8E	.	.	.
8E	4e	4b	4gg#
8E	.	.	.
8E	4A#	[4ee	4gg
8E	.	.	.
=49	=49	=49	=49
8E	4B	4ee]	4ff#
8E	.	.	.
8E	4A	8dd#	4.bb
8E	.	8cc#	.
8E	4G#	2dd#	.
8E	.	.	8ccc#
8E	4F#	.	8aa
8E	.	.	8bb
=50	=50	=50	=50
4E	4E	8ee	4gg#
.	.	8ee	.
2.r	4.cc#	8ee	4.aa
.	.	8ee	.
.	.	8ee	.
.	8dd	8ee	8bb
.	8b	8ee	8gg#
.	8cc#	8ee	8aa
=51	=51	=51	=51
1r	4a	8ee	4ff#
.	.	8ee	.
.	4.b	8ee	4.gg#
.	.	8ee	.
.	.	8ee	.
.	8cc#	8ee	8aa
.	8a	8ee	8ff#
.	8b	8ee	8gg#
=52	=52	=52	=52
1r	4g#	8ee	4ee
.	.	8ee	.
.	4.a	8ee	4.ccc#
.	.	8ee	.
.	.	8ee	.
.	8b	8ee	8ddd
.	8g#	8ee	8bb
.	8a	8ee	8ccc#
=53	=53	=53	=53
1r	4f#	8ee	4aa
.	.	8ee	.
.	4.g#	8ee	4.bb
.	.	8ee	.
.	.	8ee	.
.	8a	8ee	8ccc#
.	8f#	8ee	8aa
.	8g#	8ee	8bb
=54	=54	=54	=54
1r	4e	8ee	4gg#
.	.	8b	.
.	2.r	8gg#	4bb
.	.	8b	.
.	.	8ff#	4aa
.	.	8b	.
.	.	8ee	4gg#
.	.	8b	.
=55	=55	=55	=55
4r	8r	4dd#	4ff#
.	8b	.	.
4.A	8b	2dd#	2ff#
.	8b	.	.
.	8b	.	.
8B	8b	.	.
8G#	8b	4ee	4gg#
8A	8b	.	.
=56	=56	=56	=56
4F#	8b	4ff#	4aa
.	8B	.	.
4.A	8B	2d#	2f#
.	8B	.	.
.	8B	.	.
8B	8B	.	.
8G#	8B	4e	4g#
8A	8B	.	.
=57	=57	=57	=57
4F#	8B	4f#	4a
.	8b	.	.
4.A	8b	2dd#	2ff#
.	8b	.	.
.	8b	.	.
8B	8b	.	.
8G#	8b	4ee	4gg#
8A	8b	.	.
=58	=58	=58	=58
2F#	2.b	2dd#	4bb
.	.	.	2aa
2G#	.	[2ee#	.
.	4dd	.	[4gg#
=59	=59	=59	=59
4A	4cc#	8ee#]	8gg#]
.	.	8ff#	8ff#
2.r	2.r	2.r	8ccc#
.	.	.	8aa
.	.	.	8gg#
.	.	.	8ff#
.	.	.	8aa
.	.	.	8ff#
=60	=60	=60	=60
1r	1r	1r	8dd
.	.	.	8cc#
.	.	.	8ff#
.	.	.	8cc#
.	.	.	8b
.	.	.	8a
.	.	.	8cc#
.	.	.	8a
=61	=61	=61	=61
1r	1r	1r	8g#
.	.	.	8f#
.	.	.	8e#
.	.	.	8f#
.	.	.	8g#
.	.	.	8f#
.	.	.	8a
.	.	.	8f#
=62	=62	=62	=62
2BB	2A	2d#	2b
2C#	2G#	2e	2e
=63	=63	=63	=63
2AA	1F#	2e	2cc#
2BB	.	2A	2d#
=64	=64	=64	=64
4GG#	4E	8r	8r
.	.	8b	8b
4r	4r	8gg#	8bb
.	.	8gg#	8bb
4c#	4g#	8r	8r
.	.	8cc#	8ee
4r	4r	8ee	8gg#
.	.	8ee	8gg#
=65	=65	=65	=65
4A	4f#	8r	8r
.	.	8cc#	8ee
4r	4r	8ee	8ccc#
.	.	8ee	8ccc#
4B	4f#	8r	8r
.	.	8A	8f#
4r	4r	8a	8dd#
.	.	8a	8dd#
=66	=66	=66	=66
8E	4e	4g#	4ee
8E	.	.	.
8E	2.r	2.r	2r
8E	.	.	.
8E	.	.	.
8E	.	.	.
8E	.	.	8g#
8E	.	.	8b
=67	=67	=67	=67
8E	2.r	2.r	8ee
8E	.	.	8b
8E	.	.	8g#
8E	.	.	8b
8E	.	.	4ee
8E	.	.	.
8E	4g#	4b	4bb
8E	.	.	.
=68	=68	=68	=68
8E	2f#	2dd#	2aa
8E	.	.	.
8E	.	.	.
8E	.	.	.
8E	4e	4ee	4gg#
8E	.	.	.
8E	4r	4r	8g#
8E	.	.	8b
=69	=69	=69	=69
8E	2.r	2.r	8ee
8E	.	.	8b
8E	.	.	8g#
8E	.	.	8b
8E	.	.	4ee
8E	.	.	.
8E	4g#	4b	4bb
8E	.	.	.
=70	=70	=70	=70
8E	2f#	2a	2dd#
8E	.	.	.
8E	.	.	.
8E	.	.	.
8E	4e	4g#	4ee
8EE	.	.	.
8EE	4r	8G#	4r
8EE	.	8B	.
=71	=71	=71	=71
8EE	2.r	8e	4r
8EE	.	8B	.
8EE	.	8G#	4bb
8EE	.	8B	.
8EE	.	4e	4bb
8EE	.	.	.
8EE	4g#	4b	4bb
8EE	.	.	.
=72	=72	=72	=72
8EE	2f#	2a	4.bb
8EE	.	.	.
8EE	.	.	.
8EE	.	.	16ccc#
.	.	.	16bb
8EE	4e	4g#	4eee
8EE	.	.	.
8EE	4r	8G#	4r
8EE	.	8B	.
=73	=73	=73	=73
8EE	2.r	8e	4r
8EE	.	8B	.
8EE	.	8G#	4bb
8EE	.	8B	.
8EE	.	4e	4bb
8EE	.	.	.
8EE	4G#	4b	4bb
8EE	.	.	.
=74	=74	=74	=74
8EE	2A	2d#	4.bb
8EE	.	.	.
8EE	.	.	.
8EE	.	.	16aa
.	.	.	16ff#
8EE	4G#	4e	4ee
8EE	.	.	.
8EE	4B	4g#	4b
8EE	.	.	.
=75	=75	=75	=75
8EE	2A	2d#	4.b
8EE	.	.	.
8EE	.	.	.
8EE	.	.	16a
.	.	.	16f#
8EE	4G#	4e	4e
8EE	.	.	.
8EE	4B	4e	4g#
8EE	.	.	.
=76	=76	=76	=76
8EE	2D#	2A	4.b
8EE	.	.	.
8EE	.	.	.
8EE	.	.	16a
.	.	.	16f#
4EE	4E	4G#	4e
4r	4r	4g#	4b
=77	=77	=77	=77
4r	4r	4b	4dd
4G#	4B	2r	2r
4B	4d	.	.
4r	4r	4gg#	4bb
=78	=78	=78	=78
2e	2g#	4bb	4ddd
.	.	2.r	2.r
4f#	4a	.	.
4g	4a#	.	.
=79	=79	=79	=79
4g#	4b	2dd	2ff#
2.r	2.r	.	.
.	.	4cc#	4ee
.	.	4cc	4dd#
=80	=80	=80	=80
2E	2e	4b	4dd
.	.	2.r	2.r
4F#	4d#	.	.
4G#	4d	.	.
=81	=81	=81	=81
4A	4c#	1r	2ee
2.r	2.r	.	.
.	.	.	4dd#
.	.	.	4dd
=82	=82	=82	=82
2A	2A	2.e	4cc#
.	.	.	4cc
4G#	2B	.	4.b
4G	.	4e#	.
.	.	.	16cc#
.	.	.	16b
=83	=83	=83	=83
8F#	4c#	4f#	4a#
8F#	.	.	.
8D	4f#	4b	4dd
8BB	.	.	.
8F#	4f#	4a#	4cc#
8F#	.	.	.
8D	4f#	4bb	4ddd
8BB	.	.	.
=84	=84	=84	=84
4F#	4f#	4aa#	4ccc#
2.r	2.r	2.r	2.r
=85	=85	=85	=85
8GG	1r	1r	1r
8GG	.	.	.
8GG	.	.	.
8GG	.	.	.
8GG	.	.	.
8GG	.	.	.
8GG	.	.	.
8GG	.	.	.
=86	=86	=86	=86
8GG	2G	1r	1r
8GG	.	.	.
8GG	.	.	.
8GG	.	.	.
8GG	4F#	.	.
8GG	.	.	.
8GG	4F	.	.
8GG	.	.	.
=87	=87	=87	=87
8GG	2E	2g	1r
8GG	.	.	.
8GG	.	.	.
8GG	.	.	.
8GG	2D	4f#	.
8GG	.	.	.
8GG	.	4f	.
8GG	.	.	.
=88	=88	=88	=88
8GG	4C	2e	2cc
8GG	.	.	.
8GG	4E	.	.
8GG	.	.	.
8GG	[2G	[2d	4b
8GG	.	.	.
8GG	.	.	4b-
8GG	.	.	.
=89	=89	=89	=89
8GG	4G]	1d]	4a
8GG	.	.	.
8GG	8F#	.	4.dd
8GG	8E	.	.
8GG	2F#	.	.
8GG	.	.	8ee
8GG	.	.	8cc
8GG	.	.	8dd
=90	=90	=90	=90
8GG	4G	2d	4b
8G	.	.	.
8G	2.r	.	2.r
8G	.	.	.
8G	.	4c#	.
8G	.	.	.
8G	.	4c	.
8G	.	.	.
=91	=91	=91	=91
8G	2g	4B	1r
8G	.	.	.
8G	.	2.r	.
8G	.	.	.
8G	4f#	.	.
8G	.	.	.
8G	4f	.	.
8G	.	.	.
=92	=92	=92	=92
8G	4e	2gg	1r
8G	.	.	.
8G	4e-	.	.
8G	.	.	.
8G	4d	4ff#	.
8G	.	.	.
8G	4B	4ff	.
8G	.	.	.
=93	=93	=93	=93
8G	4c	4ee	2ccc
8G	.	.	.
8G	4f#	4ee-	.
8G	.	.	.
8G	4g	4dd	4bb
8G	.	.	.
8G	4c#	[4gg	4bb-
8G	.	.	.
=94	=94	=94	=94
8G	4d	4gg]	4aa
8G	.	.	.
8G	4c	8ff#	4.ddd
8G	.	8ee	.
8G	4B	2ff#	.
8G	.	.	8eee
8G	4A	.	8ccc
8G	.	.	8ddd
=95	=95	=95	=95
2GG	4G	8gg	4bb
.	.	8dd	.
.	2.r	8dd	2.r
.	.	8dd	.
4FF#	.	8dd	.
.	.	8cc	.
4FF	.	8b	.
.	.	8a	.
=96	=96	=96	=96
4EE	2e	4g#	8r
.	.	.	8ee
2.r	.	2.r	8ee
.	.	.	8ee
.	4d#	.	8ff#
.	.	.	8ee
.	4d	.	8gg#
.	.	.	8ee
=97	=97	=97	=97
2AA	4c	8r	4aa
.	.	8ee	.
.	2.r	8ee	2.r
.	.	8ee	.
4GG#	.	8ee	.
.	.	8dd	.
4GG	.	8cc	.
.	.	8b	.
=98	=98	=98	=98
4FF#	2f#	4a#	8r
.	.	.	8ff#
2.r	.	2.r	8ff#
.	.	.	8ff#
.	4e#	.	8gg#
.	.	.	8ff#
.	4e	.	8aa#
.	.	.	8ff#
=99	=99	=99	=99
2B	8d	1r	4bb
.	8f#	.	.
.	8f#	.	2.r
.	8f#	.	.
4A#	8f#	.	.
.	8e	.	.
4A	8d	.	.
.	8c#	.	.
=100	=100	=100	=100
4G#	8B#	2gg#	1r
.	8g#	.	.
4E	8g#	.	.
.	8g#	.	.
4D#	8a#	4ff##	.
.	8g#	.	.
4G#	8b#	4ff#	.
.	8g#	.	.
=101	=101	=101	=101
4C#	4cc#	8ee#	2ccc#
.	.	8cc#	.
2.r	4A	8cc#	.
.	.	8cc#	.
.	4G#	8dd#	4bb#
.	.	8cc#	.
.	4c#	8ee#	4bb
.	.	8cc#	.
=102	=102	=102	=102
4r	8F#	2ff#	4aa#
.	8f#	.	.
4D#	8f#	.	2.r
.	8f#	.	.
4C#	8g#	4ee#	.
.	8f#	.	.
4F#	8a#	4ee	.
.	8f#	.	.
=103	=103	=103	=103
4BB	4b	8dd#	2bb
.	.	8b	.
2.r	4G#	8b	.
.	.	8b	.
.	4F#	8cc#	4aa#
.	.	8b	.
.	4B	8dd#	4aa
.	.	8b	.
=104	=104	=104	=104
8r	8E	2ee	4gg#
8E	8G#	.	.
8E	8G#	.	2.r
8E	8G#	.	.
8F#	8A	4dd#	.
8E	8G#	.	.
8G#	8B	4dd	.
8E	8G#	.	.
=105	=105	=105	=105
4A	4c#	4cc#	2aa
2.r	4d#	4cc	.
.	2e	4b	4gg#
.	.	4a#	4gg
=106	=106	=106	=106
2B	4d#	4b	4ff#
.	4d	4g#	4ee#
4A#	4c#	4g	4ee
4A	4c	4f#	4dd#
=107	=107	=107	=107
4G#	4B	8e#	8dd
.	.	8e#	8dd
4A	4c#	8f#	8cc#
.	.	8f#	8cc#
4B	4d	8g#	8b
.	.	8g#	8b
4B#	4d#	8f#	8a
.	.	8f#	8a
=108	=108	=108	=108
2c#	2e#	8e#	8g#
.	.	8ee#	8gg#
.	.	8ee#	8gg#
.	.	8ee#	8gg#
4B#	4d#	8ff#	8gg#
.	.	8ff#	8gg#
4B	4d	8ee#	8gg#
.	.	8ee#	8gg#
=109	=109	=109	=109
8A	8c#	2aa	2ccc#
8AA	8C#	.	.
8A	8c#	.	.
8A	8c#	.	.
8B	8d	4gg#	4bb
8B	8d	.	.
8B#	8d#	4ff#	4aa
8B#	8d#	.	.
=110	=110	=110	=110
2c#	2e#	8ee#	8gg#
.	.	8e#	8g#
.	.	8ee#	8gg#
.	.	8ee#	8gg#
4B#	4d#	8ff#	8gg#
.	.	8ff#	8gg#
4B	4d	8ee#	8gg#
.	.	8ee#	8gg#
=111	=111	=111	=111
8A	8c#	2aa	2ccc#
8AA	8C#	.	.
8A	8c#	.	.
8A	8c#	.	.
8B	8d	4gg#	4bb
8B	8d	.	.
8B#	8d#	4ff#	4aa
8B#	8d#	.	.
=112	=112	=112	=112
8c#	4e#	4ee#	4gg#
8c#	.	.	.
8A	4c#	4ff#	4aa
8F#	.	.	.
8c#	4cc#	4ee#	4gg#
8c#	.	.	.
8A	4c#	4ff#	4aa
8F#	.	.	.
=113	=113	=113	=113
4c#	4cc#	4ee#	4gg#
2.r	2.r	2.r	2.r
=114	=114	=114	=114
1D	1A	[1d	1f#
=115	=115	=115	=115
1BB	1G	1d_	1g
=116	=116	=116	=116
2AA	2A	1d]	2f#
2GG#	2B	.	2e
=117	=117	=117	=117
1GG	1E	1c#	[1a
=118	=118	=118	=118
2FF#	1B	2d#	2a]
2EE	.	2d	2g#
=119	=119	=119	=119
2AA#	2E	2c#	2g
2BB	[2D	[2d	2f#
=120	=120	=120	=120
2GG	2D]	2d]	2b
2GG#	2B	2d	2e
=121	=121	=121	=121
1AA	[1A	1c#	1e
=122	=122	=122	=122
1D	1A]	8d	1ff#
.	.	8e	.
.	.	8f#	.
.	.	8g	.
.	.	8a	.
.	.	8b	.
.	.	8cc#	.
.	.	8dd	.
=123	=123	=123	=123
1BB	1G	8cc#	1gg
.	.	8dd	.
.	.	8cc#	.
.	.	8dd	.
.	.	8cc#	.
.	.	8dd	.
.	.	8ee	.
.	.	8dd	.
=124	=124	=124	=124
2AA	[1A	8cc#	2ff#
.	.	8dd	.
.	.	8ee	.
.	.	8dd	.
2GG	.	8cc#	2ee
.	.	8dd	.
.	.	8b	.
.	.	8cc#	.
=125	=125	=125	=125
1FF#	4A]	8dd#	1aa
.	.	8cc	.
.	4B	8b	.
.	.	8a	.
.	4c	8g	.
.	.	8f#	.
.	4B	8e	.
.	.	8d#	.
=126	=126	=126	=126
1EE	1B	8e	1gg
.	.	8f#	.
.	.	8g	.
.	.	8a	.
.	.	8b	.
.	.	8cc#	.
.	.	8dd#	.
.	.	8ee	.
=127	=127	=127	=127
1C	1A	8dd#	1aa
.	.	8ee	.
.	.	8dd#	.
.	.	8ee	.
.	.	8dd#	.
.	.	8ee	.
.	.	8ff#	.
.	.	8ee	.
=128	=128	=128	=128
2BB	[1B	8dd#	2gg
.	.	8ee	.
.	.	8ff#	.
.	.	8ee	.
2AA	.	8dd#	2ff#
.	.	8ee	.
.	.	8cc#	.
.	.	8dd#	.
=129	=129	=129	=129
1GG#	4B]	8ee#	1bb
.	.	8dd	.
.	4c#	8cc#	.
.	.	8b	.
.	4d	8a	.
.	.	8g#	.
.	4c#	8f#	.
.	.	8e#	.
=130	=130	=130	=130
1FF#	4r	8e	1aa#
.	.	8f#	.
.	4c#	8g#	.
.	.	8a#	.
.	4g	8b	.
.	.	8cc#	.
.	4f#	8dd#	.
.	.	8ee	.
=131	=131	=131	=131
1BB	4r	8dd#	1aa
.	.	8cc	.
.	4f#	8b	.
.	.	8a	.
.	4c	8g	.
.	.	8f#	.
.	4B	8e	.
.	.	8d#	.
=132	=132	=132	=132
1EE	4r	8d	1gg#
.	.	8e	.
.	4B	8f#	.
.	.	8g#	.
.	4f	8a	.
.	.	8b	.
.	4e	8cc#	.
.	.	8dd	.
=133	=133	=133	=133
1AA	4r	8cc#	1gg
.	.	8b	.
.	4e	8a	.
.	.	8g	.
.	4B-	8f	.
.	.	8e	.
.	4A	8d	.
.	.	8c#	.
=134	=134	=134	=134
[1D	2A	8d	2ff#
.	.	8f#	.
.	.	8a	.
.	.	8dd	.
.	2A#	8c#	2ee
.	.	8e	.
.	.	8g	.
.	.	8cc#	.
=135	=135	=135	=135
2D]	2B	8B	2dd
.	.	8d	.
.	.	8f#	.
.	.	8b	.
2D#	2f#	8A	2cc#
.	.	8c#	.
.	.	8f#	.
.	.	8a	.
=136	=136	=136	=136
4E	8g#	4e	4b
.	8b	.	.
2.r	8g#	4r	4r
.	8e	.	.
.	8d	4g#	4b
.	8e	.	.
.	8d	4r	4r
.	8B	.	.
=137	=137	=137	=137
1r	8c	4a	4cc
.	8e	.	.
.	8a	4r	4r
.	8e	.	.
.	8c	4a	4cc
.	8e	.	.
.	8c	4r	4r
.	8A	.	.
=138	=138	=138	=138
8G#	4e	4b	4dd
8B	.	.	.
8G#	4r	4r	4r
8E	.	.	.
8D	4e	4gg#	4bb
8E	.	.	.
8D	4r	4r	4r
8BB	.	.	.
=139	=139	=139	=139
8C	4e	4aa	4ccc
8E	.	.	.
8A	4r	4r	4r
8E	.	.	.
8C	4e	4a	4cc
8E	.	.	.
8C	4r	4r	4r
8AA	.	.	.
=140	=140	=140	=140
4EE	4e	4g#	4b
4E	4G#	4B	4r
2r	2r	2r	8g#
.	.	.	8e
.	.	.	8a
.	.	.	8f#
=141	=141	=141	=141
4r	4r	4r	4b
4E	4G#	4B	4r
2r	2r	2r	8b
.	.	.	8g#
.	.	.	8cc#
.	.	.	8a
=142	=142	=142	=142
4r	4r	4r	4dd
4E	4G#	4B	4r
2r	2r	2r	8dd
.	.	.	8b
.	.	.	8gg#
.	.	.	8gg#
=143	=143	=143	=143
4e	4g#	4b	8gg#
.	.	.	8ee
4r	4r	4r	8bb
.	.	.	8bb
4e	4g#	4b	8bb
.	.	.	8gg#
4r	4r	4r	8ddd
.	.	.	8ddd
=144	=144	=144	=144
4e	4g#	4b	4ddd
2.r	2.r	2.r	2.r
=145	=145	=145	=145
1r	1r	1r	2ee
.	.	.	4dd#
.	.	.	4dd
=146	=146	=146	=146
1r	1r	4r	4cc#
.	.	4a	2r
.	.	4cc#	.
.	.	4b	4ee#
=147	=147	=147	=147
1r	8r	4a#	4ff#
.	8f#	.	.
.	8f#	4f#	4.ff#
.	8f#	.	.
.	8f#	4g#	.
.	8e	.	8gg
.	8d	4a#	8ee
.	8c#	.	8ff#
=148	=148	=148	=148
8r	4B	4b	4dd
8BB	.	.	.
8BB	2B	2d	2.r
8BB	.	.	.
8C#	.	.	.
8BB	.	.	.
8D	4A	4c#	.
8BB	.	.	.
=149	=149	=149	=149
4E	4G#	4B	2dd
2.r	2.r	2.r	.
.	.	.	4cc#
.	.	.	4cc
=150	=150	=150	=150
1r	1r	4r	4b
.	.	4g#	2r
.	.	4b	.
.	.	4a	4dd#
=151	=151	=151	=151
1r	8r	4g#	4ee
.	8e	.	.
.	8e	4e	4.ee
.	8e	.	.
.	8e	4f#	.
.	8d	.	8ff#
.	8c#	4g#	8dd
.	8B	.	8ee
=152	=152	=152	=152
8r	4A	4a	4cc#
8AA	.	.	.
8AA	2A	2c#	2.r
8AA	.	.	.
8BB	.	.	.
8AA	.	.	.
8C#	4G#	4B	.
8AA	.	.	.
=153	=153	=153	=153
4D	4F#	4A	8r
.	.	.	8a
2.r	2f#	2a	8a
.	.	.	8a
.	.	.	8b
.	.	.	8a
.	4e	4g	8cc#
.	.	.	8a
=154	=154	=154	=154
8r	4d	4f#	4dd
8BB	.	.	.
8BB	2B	2d	2.r
8BB	.	.	.
8C#	.	.	.
8BB	.	.	.
8D	4A	4c#	.
8BB	.	.	.
=155	=155	=155	=155
4E	4G#	4B	8r
.	.	.	8b
2.r	2g#	2b	8b
.	.	.	8b
.	.	.	8cc#
.	.	.	8b
.	4f#	4a	8dd#
.	.	.	8b
=156	=156	=156	=156
8r	4e	4g#	4ee
8C#	.	.	.
8C#	2c#	2e	2.r
8C#	.	.	.
8D	.	.	.
8C#	.	.	.
8E	4B	4d	.
8C#	.	.	.
=157	=157	=157	=157
4F#	4A	8c#	4r
.	.	8a	.
2.r	4f#	8a	4.aa
.	.	8a	.
.	4e	8b	.
.	.	8a	8bb
.	4a	8cc#	8gg
.	.	8a	8aa
=158	=158	=158	=158
4r	8d	4dd	4ff#
.	8f#	.	.
4d	8f#	2b	4.ff#
.	8f#	.	.
4c#	8g#	.	.
.	8f#	.	8gg
4f#	8a#	4cc#	8ee
.	8f#	.	8ff#
=159	=159	=159	=159
8B	4b	4dd	4dd
8E	.	.	.
8E	4g#	4.b	4.dd
8E	.	.	.
8G#	[2e	.	.
8E	.	8cc#	8ee
8A	.	8a	8cc#
8E	.	8b	8dd
=160	=160	=160	=160
4e	8e]	8g#	4b
.	8f#	8a	.
2.r	8e	8g#	2.r
.	8d	8f#	.
.	8c#	8e	.
.	8B	8d	.
.	8A	8c#	.
.	8G#	8B	.
=161	=161	=161	=161
1r	4A	4c#	2ee
.	2.r	2.r	.
.	.	.	4dd#
.	.	.	4dd
=162	=162	=162	=162
2c#	2e	2a	4cc#
.	.	.	2r
4B#	4d#	4g#	.
4B	4d	4g	4ee#
=163	=163	=163	=163
4A#	2c#	4f#	4ff#
4FF#	.	4a#	4.ff#
4GG#	[2f#	4b	.
.	.	.	8gg
4AA#	.	4cc#	8ee
.	.	.	8ff#
=164	=164	=164	=164
4BB	8f#]	8dd	4dd
.	8g	8ee	.
4C#	8e	8cc#	2.r
.	8f#	8dd	.
4D	8d	8b	.
.	8e	8cc#	.
4D#	8c#	8a	.
.	8d	8b	.
=165	=165	=165	=165
4E	4B	4g#	2dd
2.r	2.r	2.r	.
.	.	.	4cc#
.	.	.	4cc
=166	=166	=166	=166
2B	2d	2g#	4b
.	.	.	2r
4A#	4c#	4f#	.
4A	4c	4f	4dd#
=167	=167	=167	=167
4G#	2B	4e	4ee
4EE	.	4g#	4.ee
4FF#	[2e	4a	.
.	.	.	8ff#
4GG#	.	4b	8dd
.	.	.	8ee
=168	=168	=168	=168
4AA	8e]	8cc#	4cc#
.	8f#	8dd	.
4BB	8d	8b	2.r
.	8e	8cc#	.
2C#	8c#	8a	.
.	8d	8b	.
.	8B	8g#	.
.	8c#	8a	.
=169	=169	=169	=169
4D	4A	4f#	4r
4BB	2B	4g#	4.dd
4C#	.	4e	.
.	.	.	8ee
4D	4A	[4a	8cc#
.	.	.	8dd
=170	=170	=170	=170
2E	4e	8a]	4b
.	.	8b	.
.	2.r	8g#	4.ee
.	.	8a	.
2B	.	4f#	.
.	.	.	8ff#
.	.	[4b	8dd
.	.	.	8ee
=171	=171	=171	=171
2F#	1r	8b]	4cc#
.	.	8cc#	.
.	.	8a	4.ff#
.	.	8b	.
4BB	.	4.g	.
.	.	.	8gg
4C#	.	.	[4ee
.	.	8a	.
=172	=172	=172	=172
4D	2.r	4.f#	8ee]
.	.	.	8ff#
4BB	.	.	4.dd
.	.	8g#	.
4C#	.	[2e	.
.	.	.	8ee
4AA	[4A	.	8cc#
.	.	.	8dd
=173	=173	=173	=173
4EE	8A]	4e]	4b
.	8B	.	.
4.E	8G#	2.r	2.r
.	8A	.	.
.	4F#	.	.
8F#	.	.	.
8D	[4B	.	.
8E	.	.	.
=174	=174	=174	=174
4C#	8B]	1r	1r
.	8c#	.	.
4.F#	8A	.	.
.	8B	.	.
.	4G#	.	.
8G#	.	.	.
8E	[4c#	.	.
8F#	.	.	.
=175	=175	=175	=175
4.D	8c#]	2.r	1r
.	8d	.	.
.	4.B	.	.
8E	.	.	.
4.C#	.	.	.
.	8c#	.	.
.	[4A	[4ee	.
8D	.	.	.
=176	=176	=176	=176
2BB	4A]	8ee]	4r
.	.	8ff#	.
.	4G#	8dd	4.bb
.	.	8ee	.
4C#	4e	4cc#	.
.	.	.	8ccc#
4D#	[4B	[4ff#	8aa
.	.	.	8bb
=177	=177	=177	=177
2E	4B]	8ff#]	4.gg#
.	.	8dd#	.
.	4g#	4.ee	.
.	.	.	8aa
2E	4a#	.	4.ff#
.	.	8cc#	.
.	4b	[4dd	.
.	.	.	8gg#
=178	=178	=178	=178
2E	4g#	8dd]	4.ee
.	.	8b	.
.	4a	4.cc#	.
.	.	.	8ff#
2E	4f#	.	4.dd
.	.	8a	.
.	4g#	[4b	.
.	.	.	8ee
=179	=179	=179	=179
[1EE	4e	8b]	4.cc#
.	.	8g#	.
.	4c#	4.a	.
.	.	.	8ee
.	4d#	.	4.aa
.	.	8f#	.
.	4f#	8b	.
.	.	8a	8dd#
=180	=180	=180	=180
4EE]	4B	4g#	8ee
.	.	.	8b
4r	2.r	2r	4.dd
2FF	.	.	.
.	.	.	8cc
.	.	[4d	8b
.	.	.	8a
=181	=181	=181	=181
2EE	2.r	8d]	4g#
.	.	8c	.
.	.	8B	4.dd
.	.	8A	.
2FF	.	4G#	.
.	.	.	8cc
.	[4d	4r	8b
.	.	.	8a
=182	=182	=182	=182
4EE	8d]	4r	4g#
.	8c	.	.
4r	8B	2b	4.dd
.	8A	.	.
4E	4G#	.	.
.	.	.	8cc#
4F	4A	4a	8dd
.	.	.	8dd#
=183	=183	=183	=183
4E	4B	4g#	4ee
4.EE	4.E	4.e	2.r
8DD#	8D#	8d#	.
8EE	8E	8e	.
8DD	8D	8d	.
=184	=184	=184	=184
4CC#	4C#	4c#	2e
2.r	2.r	2.r	.
.	.	.	4d#
.	.	.	4d
=185	=185	=185	=185
8AA	2A	1r	4c#
8AA	.	.	.
8AA	.	.	2.r
8AA	.	.	.
8AA	4G#	.	.
8AA	.	.	.
8AA	4G	.	.
8AA	.	.	.
=186	=186	=186	=186
8AA	2F#	2a	1r
8AA	.	.	.
8AA	.	.	.
8AA	.	.	.
8AA	2E	4g#	.
8AA	.	.	.
8AA	.	4g	.
8AA	.	.	.
=187	=187	=187	=187
8AA	4D	2f#	2dd
8AA	.	.	.
8AA	4F#	.	.
8AA	.	.	.
8AA	[2A	[2e	4cc#
8AA	.	.	.
8AA	.	.	4cc
8AA	.	.	.
=188	=188	=188	=188
8AA	4A]	1e]	4b
8AA	.	.	.
8AA	8G#	.	4.ee
8AA	8F#	.	.
8AA	2G#	.	.
8AA	.	.	8ff#
8AA	.	.	8dd
8AA	.	.	8ee
=189	=189	=189	=189
8AA	4A	2ee	4cc#
8A	.	.	.
8A	2.r	.	2.r
8A	.	.	.
8A	.	4dd#	.
8A	.	.	.
8A	.	4dd	.
8A	.	.	.
=190	=190	=190	=190
8A	2a	4cc#	1r
8A	.	.	.
8A	.	2.r	.
8A	.	.	.
8A	4g#	.	.
8A	.	.	.
8A	4g	.	.
8A	.	.	.
=191	=191	=191	=191
8A	4f#	2aa	1r
8A	.	.	.
8A	4f	.	.
8A	.	.	.
8A	4e	4gg#	.
8A	.	.	.
8A	4c#	4gg	.
8A	.	.	.
=192	=192	=192	=192
8A	4d	4ff#	2ddd
8A	.	.	.
8A	4g#	4ff	.
8A	.	.	.
8A	4a	4ee	4ccc#
8A	.	.	.
8A	4d#	[4aa	4ccc
8A	.	.	.
=193	=193	=193	=193
8A	4e	4aa]	4bb
8A	.	.	.
8A	4d	8gg#	4.eee
8A	.	8ff#	.
8A	4c#	2gg#	.
8A	.	.	8ddd#
8A	4B	.	8eee
8A	.	.	8ddd
=194	=194	=194	=194
4A	4A	4aa	8ccc#
.	.	.	8aa
2.r	4.f#	4.dd	8aa
.	.	.	8aa
.	.	.	8aa
.	8g	8ee	8aa
.	8e	8cc#	8aa
.	8f#	8dd	8aa
=195	=195	=195	=195
1r	4d	4b	8aa
.	.	.	8aa
.	4.e	4.cc#	8aa
.	.	.	8aa
.	.	.	8aa
.	8f#	8dd	8aa
.	8d	8b	8aa
.	8e	8cc#	8aa
=196	=196	=196	=196
1r	4c#	4a	8aa
.	.	.	8a
.	4.d	4.ff#	8aa
.	.	.	8aa
.	.	.	8aa
.	8e	8gg	8aa
.	8c#	8ee	8aa
.	8d	8ff#	8aa
=197	=197	=197	=197
1r	4B	4dd	8aa
.	.	.	8aa
.	4.c#	4.ee	8aa
.	.	.	8aa
.	.	.	8aa
.	8d	8ff#	8aa
.	8B	8dd	8aa
.	8c#	8ee	8aa
=198	=198	=198	=198
1r	4A	8cc#	4aa
.	.	8ee	.
.	2.r	8ccc#	4eee
.	.	8ee	.
.	.	8bb	4ddd
.	.	8ee	.
.	.	8aa	4ccc#
.	.	8ee	.
=199	=199	=199	=199
4r	8r	4gg#	4bb
.	8ee	.	.
4.d	8ee	2gg#	2bb
.	8ee	.	.
.	8ee	.	.
8e	8ee	.	.
8c#	8ee	4aa	4ccc#
8d	8ee	.	.
=200	=200	=200	=200
4B	8ee	4bb	4ddd
.	8e	.	.
4.d	8e	2g#	2b
.	8e	.	.
.	8e	.	.
8e	8e	.	.
8c#	8e	4a	4cc#
8d	8e	.	.
=201	=201	=201	=201
4B	8e	4b	4dd
.	8ee	.	.
4.d	8ee	2gg#	2bb
.	8ee	.	.
.	8ee	.	.
8e	8ee	.	.
8c#	8ee	4aa	4ccc#
8d	8ee	.	.
=202	=202	=202	=202
2B	2g#	2.ee	4eee
.	.	.	2ddd
2c#	[2a#	.	.
.	.	4gg	[4ccc#
=203	=203	=203	=203
4d	8a#]	4ff#	8ccc#]
.	8b	.	8bb
2.r	2.r	2.r	8fff#
.	.	.	8ddd
.	.	.	8ccc#
.	.	.	8bb
.	.	.	8ddd
.	.	.	8bb
=204	=204	=204	=204
1r	1r	1r	8gg
.	.	.	8ff#
.	.	.	8bb
.	.	.	8ff#
.	.	.	8ee
.	.	.	8dd
.	.	.	8ff#
.	.	.	8dd
=205	=205	=205	=205
1r	1r	1r	8cc#
.	.	.	8b
.	.	.	8a#
.	.	.	8b
.	.	.	8cc#
.	.	.	8b
.	.	.	8dd
.	.	.	8b
=206	=206	=206	=206
2E	2d	2g#	2ee
2F#	2c#	[2a	2a
=207	=207	=207	=207
2D	1B	2a]	2ff#
2E	.	2d	2g#
=208	=208	=208	=208
2.FF#	2e	2g	[1a#
.	4d	[2f#	.
4EE	4c#	.	.
=209	=209	=209	=209
4DD	4d	4f#]	8a#]
.	.	.	8b
2.r	2.r	2.r	8ff#
.	.	.	8dd
.	.	.	8cc#
.	.	.	8b
.	.	.	8dd
.	.	.	8b
=210	=210	=210	=210
1r	1r	1r	8g
.	.	.	8f#
.	.	.	8b
.	.	.	8f#
.	.	.	8e
.	.	.	8d
.	.	.	8f#
.	.	.	8d
=211	=211	=211	=211
1r	1r	1r	8c#
.	.	.	8B
.	.	.	8A#
.	.	.	8B
.	.	.	8c#
.	.	.	8B
.	.	.	8d
.	.	.	8B
=212	=212	=212	=212
2EE	2D	2G#	2e
2FF#	2C#	[2A	2A
=213	=213	=213	=213
2DD	2D	2A]	2f#
2EE	2B	2d	2G#
=214	=214	=214	=214
4C#	4A	8r	8r
.	.	8c#	8e
4r	4r	8a	8ee
.	.	8a	8ee
4F#	4c#	8r	8r
.	.	8a	8cc#
4r	4r	8cc#	8aa
.	.	8cc#	8aa
=215	=215	=215	=215
4BB	4B	8r	8r
.	.	8dd	8ff#
4r	4r	8ff#	8ddd
.	.	8ff#	8ddd
4E	4b	8r	8r
.	.	8d	8b
4r	4r	8dd	8gg#
.	.	8dd	8gg#
=216	=216	=216	=216
8AA	4a	4cc#	4aa
8A	.	.	.
8A	2.r	2.r	2r
8A	.	.	.
8A	.	.	.
8A	.	.	.
8A	.	.	8cc#
8A	.	.	8ee
=217	=217	=217	=217
8A	2.r	2.r	8aa
8A	.	.	8ee
8A	.	.	8cc#
8A	.	.	8ee
8A	.	.	4aa
8A	.	.	.
8A	4cc#	4ee	4eee
8A	.	.	.
=218	=218	=218	=218
8A	2b	2gg#	2ddd
8A	.	.	.
8A	.	.	.
8A	.	.	.
8A	4a	4aa	4ccc#
8A	.	.	.
8A	4r	4r	8cc#
8A	.	.	8ee
=219	=219	=219	=219
8A	2.r	2.r	8aa
8A	.	.	8ee
8A	.	.	8cc#
8A	.	.	8ee
8A	.	.	4aa
8A	.	.	.
8A	4cc#	4ee	4eee
8A	.	.	.
=220	=220	=220	=220
8A	2b	2dd	2gg#
8A	.	.	.
8A	.	.	.
8A	.	.	.
8A	4a	4cc#	4aa
8AA	.	.	.
8AA	4r	8c#	4r
8AA	.	8e	.
=221	=221	=221	=221
8AA	2.r	8a	4r
8AA	.	8e	.
8AA	.	8c#	4ee
8AA	.	8e	.
8AA	.	4a	4ee
8AA	.	.	.
8AA	4cc#	4ee	4ee
8AA	.	.	.
=222	=222	=222	=222
8AA	2b	2dd	4.gg#
8AA	.	.	.
8AA	.	.	.
8AA	.	.	16ff#
.	.	.	16gg#
8AA	4a	4cc#	4aa
8AA	.	.	.
8AA	4r	8c#	4r
8AA	.	8e	.
=223	=223	=223	=223
8AA	2.r	8a	4r
8AA	.	8e	.
8AA	.	8c#	4ee
8AA	.	8e	.
8AA	.	4a	4eee
8AA	.	.	.
8AA	4c#	4ee	4eee
8AA	.	.	.
=224	=224	=224	=224
8AA	2d	2g#	4.eee
8AA	.	.	.
8AA	.	.	.
8AA	.	.	16ddd
.	.	.	16bb
8AA	4c#	4a	4aa
8AA	.	.	.
8AA	4e	4cc#	4ee
8AA	.	.	.
=225	=225	=225	=225
8AA	2d	2g#	4.ee
8AA	.	.	.
8AA	.	.	.
8AA	.	.	16dd
.	.	.	16b
8AA	4c#	4a	4a
8AA	.	.	.
8AA	4E	4A	4c#
8AA	.	.	.
=226	=226	=226	=226
8AA	2D	2G#	4.e
8AA	.	.	.
8AA	.	.	.
8AA	.	.	16d
.	.	.	16B
4AA	4C#	4A	4A
4r	4A	4r	4cc#
=227	=227	=227	=227
4r	4c#	4r	4ee
4AA	2r	4c#	2r
4C#	.	4e	.
4r	4a	4r	4ccc#
=228	=228	=228	=228
2A	4cc#	2cc#	4eee
.	2.r	.	2.r
4B	.	4dd	.
4B#	.	4dd#	.
=229a	=229a	=229a	=229a
4c#	1r	4ee	2ee
4r	.	2.r	.
2r	.	.	4dd#
.	.	.	4dd
=229b	=229b	=229b	=229b
4c#	2c#	4ee	2ee
4r	.	4r	.
2r	4c	2r	4dd#
.	4B	.	4dd
=230	=230	=230	=230
2F#	4A	2a	4cc#
.	2r	.	2r
4E#	.	4g#	.
4E	4A#	4g	4cc#
=231	=231	=231	=231
4D	8B	2f#	8dd
.	8c#	.	8ee
2r	8d	.	8ff#
.	8c#	.	8ee
.	4B	4r	4dd
4D#	4A	4f#	4cc#
=232	=232	=232	=232
8E	4G#	8g#	4b
8F#	.	8a	.
8G#	2.r	8b	2.r
8F#	.	8a	.
4E	.	4g#	.
4D	.	4f#	.
=233	=233	=233	=233
1C#	4G#	8e#	2cc#
.	.	8c#	.
.	4E#	8c#	.
.	.	8c#	.
.	4F#	8d#	4b#
.	.	8c#	.
.	4G#	8e#	4b
.	.	8c#	.
=234	=234	=234	=234
4FF#	4A	8f#	4a
.	.	8a	.
2r	2.r	8f#	4dd
.	.	8d	.
.	.	8g	4cc#
.	.	8e	.
4D#	.	8a	4cc
.	.	8f#	.
=235	=235	=235	=235
4E	4r	8a	4b
.	.	8e	.
2r	4e	8g#	4ee
.	.	8e	.
.	4e	8f#	4dd#
.	.	8a	.
4E	4e	8g#	4dd
.	.	8b	.
=236	=236	=236	=236
4AA	2e	4a	8cc#
.	.	.	8ee
2.r	.	2.r	8ee
.	.	.	8ee
.	4d#	.	8ff#
.	.	.	8ee
.	4d	.	8gg#
.	.	.	8ee
=237	=237	=237	=237
1r	8c#	2ee	4aa
.	8e	.	.
.	8e	.	2.r
.	8e	.	.
.	8f#	4dd#	.
.	8e	.	.
.	8g#	4dd	.
.	8e	.	.
=238	=238	=238	=238
2F#	2a	8cc#	1r
.	.	8a	.
.	.	8a	.
.	.	8a	.
4E#	4g#	8b	.
.	.	8a	.
4E	4g	8cc#	.
.	.	8a	.
=239	=239	=239	=239
8D	8f#	8dd	1r
8BB	8e	8ee	.
8BB	8d	8ff#	.
8BB	8c#	8ee	.
8C#	4B	4dd	.
8BB	.	.	.
8D	4A	4cc#	.
8BB	.	.	.
=240	=240	=240	=240
4E	4G#	4b	8r
.	.	.	8gg#
2.r	2.r	2.r	8gg#
.	.	.	8gg#
.	.	.	8aa
.	.	.	8gg#
.	.	.	8bb
.	.	.	8gg#
=241	=241	=241	=241
8r	2e#	2cc#	2ccc#
8C#	.	.	.
8C#	.	.	.
8C#	.	.	.
8D#	4f#	4b#	4bb#
8C#	.	.	.
8E#	4g#	4b	4bb
8C#	.	.	.
=242	=242	=242	=242
4F#	8a	4a	4aa
.	8g	.	.
2r	8f#	4dd	4ddd
.	8d	.	.
.	8g	4cc#	4ccc#
.	8e	.	.
4D#	8a	4cc	4ccc
.	8f#	.	.
=243	=243	=243	=243
8E	2g#	4b	4bb
8E	.	.	.
8E	.	4ee	4eee
8E	.	.	.
8F#	4a	4dd#	4ddd#
8E	.	.	.
8G#	4b	4dd	4ddd
8E	.	.	.
=244	=244	=244	=244
2A	8e	8cc#	8ccc#
.	8c#	8A	8a
.	8c#	8A	8a
.	8c#	8A	8a
4G#	4d	8B	8b
.	.	8A	8a
4G	4e	8c#	8cc#
.	.	8A	8a
=245	=245	=245	=245
4F#	8f#	8d	8dd
.	8d	8f#	8ff#
4B	8f#	8d	8dd
.	8d	8B	8b
4A#	4e	8c#	8cc#
.	.	8B	8b
4A	4f#	8d#	8dd#
.	.	8B	8b
=246	=246	=246	=246
4G#	8g#	8e	8ee
.	8e	8b	8bb
4e	8b	8g#	8gg#
.	8g#	8e	8ee
4d#	4a	8f#	8ff#
.	.	8e	8ee
4d	4b	8g#	8gg#
.	.	8e	8ee
=247	=247	=247	=247
4c#	4cc#	8a	8aa
.	.	8e	8ee
4c#	4e	8a	8aa
.	.	8ee	8ee
4B	4d	8gg#	8bb
.	.	8ee	8ee
4A	4c#	8aa	8ccc#
.	.	8ee	8ee
=248	=248	=248	=248
4G#	4e	4bb	4ddd
2.r	2.r	2.r	2.r
=249	=249	=249	=249
2.r	2.r	2.r	2ee
.	.	.	4dd#
4e#	4g#	4b	4dd
=250	=250	=250	=250
4f#	4a	4a	4cc#
4r	4r	4r	2.r
4d	4a	4ff#	.
4r	4r	4r	.
=251	=251	=251	=251
1e	2a	2.b	8r
.	.	.	8eee
.	.	.	8eee
.	.	.	8eee
.	2g#	.	8eee
.	.	.	8ddd
.	.	8cc#	8ccc#
.	.	8dd	8bb
=252	=252	=252	=252
4A	4a	4cc#	4aa
2.r	2.r	2.r	2.r
=253	=253	=253	=253
2.r	2.r	2.r	2e
.	.	.	4d#
4E#	4G#	4B	4d
=254	=254	=254	=254
4F#	4A	4A	4c#
4r	4r	4r	2.r
4D#	4A	4f#	.
4r	4r	4r	.
=255	=255	=255	=255
4E	4A	4B	8r
.	.	.	8ee
4r	4r	4r	8ee
.	.	.	8ee
4EE	4G#	4e	8ee
.	.	.	8dd
4r	4r	4r	8cc#
.	.	.	8b
=256	=256	=256	=256
4AA	4A	4c#	4a
2.r	2.r	2.r	2.r
=257	=257	=257	=257
1r	8r	2cc#	2ee
.	8e	.	.
.	8e	.	.
.	8e	.	.
.	8f#	4cc	4dd#
.	8e	.	.
.	8g#	4b	4dd
.	8e	.	.
=258	=258	=258	=258
1r	4a	4a	4cc#
.	2.r	2.r	2.r
=259	=259	=259	=259
8r	1r	2e	2cc#
8EE	.	.	.
8EE	.	.	.
8EE	.	.	.
8FF#	.	4d#	4cc
8EE	.	.	.
8GG#	.	4d	4b
8EE	.	.	.
=260	=260	=260	=260
4AA	1r	4c#	4a
2.r	.	2.r	2.r
=261	=261	=261	=261
1E	2c#	2e	8r
.	.	.	8ee
.	.	.	8ee
.	.	.	8ee
.	4c	4d#	8ff#
.	.	.	8ee
.	4B	4d	8gg#
.	.	.	8ee
=262	=262	=262	=262
4AA	4A	4c#	4aa
2.r	2.r	2.r	2.r
==	==	==	==
*-	*-	*-	*-
!!!RWG1: This file contains only pitch and duration data.
!!!RWG2: Transposing instruments are not transposed.
!!!RWG3: Spines may have incompatible meters.
!!!RWG4: Durations of rests and tied notes may be interpreted.
!!!RWG: Key is interpreted using the Humdrum key tool.
!!!AFT: stage1
!!!END: 1997/04/15
!!!KEY: 1925216985
!!!EMD: Converted from MuseData to Humdrum Dec 16, 2000, by Andreas Kornstaedt using muse2kern.
!!!EMD: Manual editing by Craig Sapp, Nov 2001
